X:1
T:Act II Introduction
T:Act II Introduction
T:The Balkan Princess
T:Paul Rubens
C:Paul Rubens
%%score [ 1 2 ] { ( 3 5 ) | 4 }
L:1/8
Q:1/4=108
M:2/4
K:G
V:1 treble nm="Kvinner"
V:2 bass nm="Menn"
V:3 treble nm="Piano"
V:5 treble 
V:4 bass 
V:1
"^Allegro" z4 | z4 | z4 | z4 | z4 | z4 | z4 | z4 | z4 | z4 | z4 | z4 | z4 | z4 | z4 | z4 | z4 | %17
w: |||||||||||||||||
 z4 | z4 | z4 | z4 | z4 | z4 | z4 | z4 | z4 | z4 | z4 | z4 | z4 | z4 | z4 | z4 | z4 | z4 | z4 | %36
w: |||||||||||||||||||
 z4 | z4 | z4 | z4 | z4 | z4 | z4 | z4 | z4 | z4 | z4 | z4 | z4 | z4 | z4 | z4 | z4 | z4 | z4 | %55
w: |||||||||||||||||||
 z4 | z4 | z4 | z4 | z4 | z4 | z4 | z4 | z4 | z4 | z4 | z4 | z4 | z4 | z4 | z4 | z4 | z4 | z4 | %74
w: |||||||||||||||||||
 z4 | z4 | z4 | z4 | z4 | z4 | z2 z!f! D | G2 A2 | G F E D | G2 A D | G3 G | c2 d2 | c B A G | %87
w: ||||||La,|la, la,|la, la, la, la,|la, la, la,|la, la,|la, la,|la, la, la, la,|
 c2 d G | e3 d | c3/2 d/4 c/4 B A | d B G2 | A3/2 B/4 A/4 G F | B3 G | F2 A2 | B2 f2 | e ^c B A | %96
w: la, la, la,|la, la,|la, la, la, la, la,|la, la, la,|la, la, la, la, la,|la, la,|la, la,|la, la,|la, la, la, la,|
 d3 D | G2 A2 | G F E D | G2 A D | G3 G | c2 d2 | c B A G | c2 d G | e3 d | c3/2 d/4 c/4 B A | %106
w: la, la,|la, la,|la, la, la, la,|la, la, la,|la, la,|la, la,|la, la, la, la,|la, la, la,|la, la,|la, la, la, la, la,|
 d B G2 | A3/2 B/4 A/4 G F | B3 B | c3/2 d/4 c/4 B A | d B e c | f z !fermata!d2 | [Gg]4- | %113
w: la, la, la,|la, la, la, la, la,|la, la,|la, la, la, la, la,|la, la, la, la,|la, la,|la.|
 [Gg]4- | [Gg] z z2 |] %115
w: _||
V:2
 z4 | z4 | z4 | z4 | z4 | z4 | z4 | z4 | z4 | z4 | z4 | z4 | z4 | z4 | z4 | z4 | z4 | z4 | z4 | %19
w: |||||||||||||||||||
 z4 | z4 | z4 | z4 | z4 | z4 | z4 | z4 | z4 | z4 | z4 | z4 | z4 | z4 | z4 | z4 | z4 | z4 | z4 | %38
w: |||||||||||||||||||
 z4 | z4 | z4 | z4 | z4 | z4 | z4 | z4 | z4 | z4 | z4 | z4 | z4 | z4 | z4 | z4 | z4 | z4 | z4 | %57
w: |||||||||||||||||||
 z4 | z4 | z4 | z4 | z4 | z4 | z4 | z4 | z4 | z4 | z4 | z4 | z4 | z4 | z4 | z4 | z4 | z4 | z4 | %76
w: |||||||||||||||||||
 z4 | z4 | z4 | z4 | z2 z!f! D, | G,2 A,2 | G, F, E, D, | G,2 A, D, | G,3 G, | C2 D2 | C B, A, G, | %87
w: ||||La,|la, la,|la, la, la, la,|la, la, la,|la, la,|la, la,|la, la, la, la,|
 C2 D G, | E3 D | C3/2 D/4 C/4 B, A, | D B, G,2 | A,3/2 B,/4 A,/4 G, F, | B,3 G, | F,2 A,2 | %94
w: la, la, la,|la, la,|la, la, la, la, la,|la, la, la,|la, la, la, la, la,|la, la,|la, la,|
 B,2 F2 | E ^C B, A, | D3 D, | G,2 A,2 | G, F, E, D, | G,2 A, D, | G,3 G, | C2 D2 | C B, A, G, | %103
w: la, la,|la, la, la, la,|la, la,|la, la,|la, la, la, la,|la, la, la,|la, la,|la, la,|la, la, la, la,|
 C2 D G, | E3 D | C3/2 D/4 C/4 B, A, | D B, G,2 | A,3/2 B,/4 A,/4 G, F, | B,3 B, | %109
w: la, la, la,|la, la,|la, la, la, la, la,|la, la, la,|la, la, la, la, la,|la, la,|
 C3/2 D/4 C/4 B, A, | D B, E C | F z !fermata!D2 | [G,G]4- | [G,G]4- | [G,G] z z2 |] %115
w: la, la, la, la, la,|la, la, la, la,|la, la,|la.|_||
V:3
!f!"^marcato" !>![DFAd]2 eA | d2 eA | [Fd]>(A d/e/f/g/ | f/e/d/A/ d/e/f/a/) | !>![EGc]2 dG | %5
 c2 dG |!mf! [Ec]>(G c/d/e/f/ | e/d/c/G/ c/d/e/g/) |"_cresc." z A d2- | de A2- | [Aa]A d2- | %11
 de [Aa]2 | (d/e/d/e/ d/e/g/e/) | (d/e/d/e/ d/e/g/e/ | d)!<(!(D/E/ F/G/A/B/ | %15
 c/B/A/B/ c/d/e/f/)!<)! |!f! [Gg]2 [Aa]2 |{ga} gf ed | [Gg]2 [Aa]d | [Gg]3 g | [cc']2 [dd']2 | %21
{c'd'} c'b ag | [cc']2 [dd']g | [ee']3 !fermata![bd'] |"^più lento" ([ac']3/2d'/4c'/4) .b.a | %25
{/a} [bd'][gb] g2 | ([ca]3/2b/4a/4) .g.f | [gb]3 [Gg] |"^poco accel."!<(! [Ff]2 [Aa]2 | %29
 [Bb]2!<)! [ff']2 |{e'f'} e'^c' ba |"^a tempo" [dd']3 d | [Gg]2 [Aa]2 |{ga} gf ed | [Gg]2 [Aa]d | %35
 [Gg]3 g | [cc']2 [dd']2 |{c'd'} c'b ag | [cc']2 [dd']g | [ee']3 !fermata![bd'] | %40
"^più lento" ([ac']3/2d'/4c'/4) .b.a |{/a} .[bd'].[gb] g2 | ([ca]3/2b/4a/4) .g.f | %43
 [^gb]3"^CURTAIN" b |"^accel     -       al    -     - tempo" (c'3/2d'/4c'/4) .b.a | %45
 .[dd'].b .[ee'].c' | [ff']2 [dd']2 |!f! [gg']"^a tempo"[B,D] z!>(! [B,D] | z [B,D]!>)! z!p! D | %49
"^Stage Band" G2 A2 |{GA} GF ED | G2{DEFG} AD | G2 [GBdg] G | c2 d2 |{cd} cB AG | c2{GABc} dG | %56
 [ce]3 !fermata![Bd] |"^più lento" ([Ac]3/2d/4c/4) .[GB].[FA] | .[Bd].[GB] G2 | (A3/2B/4A/4) .G.F | %60
 [GB]3 g | f2!<(! a2 | b2 f'2!<)! |{e'f'} e'^c' ba |!f!"^a tempo" d'3 d | gG aA | %66
 g/f/e/d/ ^c/d/e/f/ | g/d/g/b/ a/f/d/f/ | g z{DCB,A,} G, g |{gab} c'c d'd | c'/b/a/g/ f/g/a/b/ | %71
 (.c'/.b/.c'/.e'/ .d'/.b/.c'/.d'/) | e'3 !fermata![bd'] |"^più lento" ([ac']3/2d'/4c'/4) .b.a | %74
{/a} .d'.b g2 | ([ca]3/2b/4a/4) .g.f | [e^gb]3 b | ([ec']3/2d'/4c'/4) .[dfb].a | %78
"^a tempo"{/a} [dd']b{/b} [ee']c' | [ff'] z [dd']2 |!f! [gg'] [Dd]/[Dd]/ [Dd][Dd] | [Gg]2 [Aa]2 | %82
{ga} gf ed | [Gg]2 [Aa]d | [Gg]3 g | [cc']2 [dd']2 |{c'd'} c'b ag | [cc']2 [dd']g | [ee']3 [bd'] | %89
 ([ac']3/2d'/4c'/4) .b.a |{/a} .[bd'].[gb] g2 | ([ca]3/2b/4a/4) .g.f | [gb]3 [Gg] | %93
!<(! [Ff]2 [Aa]2 | [Bb]2!<)! [ff']2 |{e'f'} e'^c' ba | [dd']3 d | [Gg]2 [Aa]2 |{ga} gf ed | %99
 [Gg]2 [Aa]d | [Gg]3 g | [cc']2 [dd']2 |{c'd'} c'b ag | [cc']2 [dd']g | [ee']3 [bd'] | %105
 ([ac']3/2d'/4c'/4) .b.a |{/a} .[bd'].[gb] .g2 | ([ca]3/2b/4a/4) .g.f | [^gb]3 b | %109
 (c'3/2d'/4c'/4) ba | .[dd'].b .[ee'].c' | [ff'] z !fermata![DFAd]2 |{def} g/f/e/d/ g/f/e/d/ | %113
 g/f/e/d/ g/f/e/d/ | gG z2 |] %115
V:4
 !>![D,,D,]2 EA, | D2 EA, | [D,D]4- | [D,D]4 | !>![D,,D,]2 DG, | C2 DG, | C4- | C4 | %8
 [D,F,A,D][D,F,A,D] [D,F,A,D][D,F,A,D] | [D,G,A,C][D,G,A,C] [D,G,A,C][D,G,A,C] | %10
 [D,F,A,D][D,F,A,D] [D,F,A,D][D,F,A,D] | [D,G,A,C][D,G,A,C] [D,G,A,C][D,G,A,C] | %12
 [D,F,A,] z [D,E,G,C] z | [D,F,A,] z [D,E,G,C] z | [D,F,A,] z z2 | z4 | G,[B,D] D,[CD] | %17
 G,[B,D] D,[CD] | G,[B,D] D,[CD] | G,[B,D] G,,[=F,G,B,] | C,[E,G,C] G,,[=F,G,B,] | %21
 C,[E,G,C] G,,[=F,G,B,] | C,[E,G,C] G,,[=F,G,B,] | C,[E,G,C] [G,CE] !fermata!z | %24
 A,,[E,A,C] D,[F,C] | G,,[G,B,] B,,[G,B,] | F,[A,CE] B,,[A,B,^D] | E,[G,B,E] E,[G,B,] | %28
 A,,[F,A,D] A,,[F,A,D] | A,,[F,A,D] A,,[^G,B,D] | A,, [=G,A,^C]2 [G,A,C] | [D,F,A,D]^D, E,F, | %32
 G,[B,D] D,[CD] | G,[B,D] D,[CD] | G,[B,D] D,[CD] | G,[B,D] G,,[=F,G,B,] | C,[E,G,C] G,,[=F,G,B,] | %37
 C,[E,G,C] G,,[=F,G,B,] | C,[E,G,C] G,,[=F,G,B,] | C,[E,G,C] [G,CE] !fermata!z | %40
 A,,[E,A,C] D,[F,C] | G,,[G,B,] B,,[G,B,] | F,[A,CE] B,,[A,B,^D] | E,[^G,B,] E,[G,B,E] | %44
 A,,[E,A,C] D,[F,C] | B,,[D,G,B,] A,,[E,A,C] | D,,2 [D,F,C]2 | G,, z D, z | G, z D, z | %49
 G,, z D,, z | G,, z D,,2 | G,,[G,B,] D,[F,C] | [G,B,] z !arpeggio![G,,D,B,] z | %53
 C,[G,C] G,,[G,B,] | C,[G,C] G,,[G,B,] | C,[G,CE] G,,[G,B,=F] | C,[G,CE] [CEG] !fermata!z | %57
 A,,[E,A,C] D,,[D,C] | G,,[D,G,B,] B,,[D,G,B,] | F,,[A,C] B,,[A,B,] | E,[G,B,E] [B,EG] z | %61
 A,,[A,DF] z [A,DF] | z [A,DF] z [A,D^G] | [A,^C=G] z z2 | [D,D][^D,^D] [E,E][F,F] | %65
 [G,B,] z [D,F,C] z | [G,B,] z D,[F,C] | G,[B,D] D,[F,C] | [G,B,] z G,, z | C, z G,[B,D] | %70
 C,[E,G,C] G,[B,D] | C,[G,CE] G,[B,D] | C,[E,G,C] [G,CE] !fermata!z | A,[CE] D,[CDF] | %74
 G,[B,D] B,,[G,B,] | F,,[A,CE] B,,[A,B,^D] | E,,E, !>!=D2 | A,,[E,A,C] D,C, | %78
 B,,[G,B,] A,,[E,A,C] | [D,A,C] z [D,F,C]2 | G,, z z D, | G,,[B,D] D,[CD] | G,[B,D] D,[CD] | %83
 G,[B,D] D,[CD] | G,[B,D] G,,[=F,G,B,] | C,[E,G,C] G,,[=F,G,B,] | C,[E,G,C] G,,[=F,G,B,] | %87
 C,[E,G,C] G,,[=F,G,B,] | C,[E,G,C] [G,CE] z | A,,[E,A,C] D,[F,C] | G,,[G,B,] B,,[G,B,] | %91
 F,,[A,CE] B,,[A,B,^D] | E,[G,B,E] E,[G,B,] | A,,[F,A,D] A,,[F,A,D] | A,,[F,A,D] A,,[^G,B,D] | %95
 A,, [G,A,^C]2 [G,A,C] | [D,F,A,D]^D, E,F, | G,[B,D] D,[CD] | G,[B,D] D,[CD] | G,[B,D] D,[CD] | %100
 G,[B,D] G,,[=F,G,B,] | C,[E,G,C] G,,[=F,G,B,] | C,[E,G,C] G,,[=F,G,B,] | C,[E,G,C] G,,[=F,G,B,] | %104
 C,[E,G,C] [G,CE] z | A,,[E,A,C] D,[F,C] | G,,[G,B,] B,,[G,B,] | F,,[A,CE] B,,[A,B,^D] | %108
 E,[^G,B,] E,[G,D] | A,,[E,A,C] D,[F,C] | B,,[D,G,B,] A,,[E,A,C] | D, z !fermata![D,F,A,C]2 | %112
{/G,,} (!///-![G,B,]2 D2) | (!///-![G,B,]2 D2) | [G,B,D][G,,G,] z2 |] %115
V:5
 x4 | x4 | x4 | x4 | x4 | x4 | x4 | x4 | x4 | x4 | x4 | x4 | x4 | x4 | x4 | x4 | x4 | x4 | x4 | %19
 x4 | x4 | x4 | x4 | x4 | x4 | x4 | x4 | x4 | x4 | x4 | x4 | x4 | x4 | x4 | x4 | x4 | x4 | x4 | %38
 x4 | x4 | x4 | x4 | x4 | x4 | x4 | x4 | x4 | x4 | x4 | z [B,D] z [CD] | z [B,D] z C | x4 | x4 | %53
 z E z =F | z E z =F | x4 | x4 | x4 | x4 | (E2 ^D2) | x4 | [Ad] z x2 | x4 | x4 | x4 | x4 | x4 | %67
 x4 | x4 | x4 | x4 | x4 | x4 | x4 | x4 | x4 | x4 | x4 | x4 | x4 | x4 | x4 | x4 | x4 | x4 | x4 | %86
 x4 | x4 | x4 | x4 | x4 | x4 | x4 | x4 | x4 | x4 | x4 | x4 | x4 | x4 | x4 | x4 | x4 | x4 | x4 | %105
 x4 | x4 | x4 | x4 | x4 | x4 | x4 | x4 | x4 | x4 |] %115

